resources/haticons/SVG/windows1.svg

<!-- Generated by IcoMoon.io -->
<svg version="1.1" xmlns="http://www.w3.org/2000/svg" width="24" height="24" viewBox="0 0 24 24">
<title>windows1</title>
<path d="M10.95 11.175v-9.45l13.050-1.725v11.175h-13.050zM0 11.175v-7.95l9.675-1.275v9.225h-9.675zM9.675 12.3v9.075l-9.675-1.35v-7.725h9.675zM24 12.3v10.95l-13.050-1.725v-9.225h13.050z"></path>
</svg>

<svg xmlns="http://www.w3.org/2000/svg" width="24" height="24"><path d="M10.95 11.175v-9.45L24 0v11.175H10.95zm-10.95 0v-7.95L9.675 1.95v9.225H0zM9.675 12.3v9.075L0 20.025V12.3h9.675zM24 12.3v10.95l-13.05-1.725V12.3H24z"/></svg>
